app/assets/images/icons/active/information--line.svg

<svg width="32" height="232" viewBox="0 0 32 232" xmlns="http://www.w3.org/2000/svg" xmlns:sketch="http://www.bohemiancoding.com/sketch/ns"><title>information--line</title><g sketch:type="MSPage" fill="none"><path d="M16 123c-7.17 0-13 5.834-13 13.002 0 7.166 5.83 12.998 13 12.998 7.166 0 13-5.832 13-12.998 0-7.168-5.834-13.002-13-13.002zm0 24.016c-6.078 0-11.018-4.942-11.018-11.014 0-6.078 4.94-11.018 11.018-11.018 6.072 0 11.014 4.94 11.014 11.018 0 6.072-4.942 11.014-11.014 11.014zm-3.633-3.856c.42-.021.793-.064 1.117-.15.444-.127.627-.469.627-.936v-5.795c-.047-.447-.23-.832-.603-1.064-.28-.172-.885-.342-1.303-.363v-1.063l5.658-.258.158.149v8.265c0 .469.211.809.631.959.35.129.723.235 1.141.256v1.024h-7.426v-1.024zm3.631-11.146c-1.113 0-2.098-1.01-2.098-2.151 0-1.06.985-2.045 2.098-2.045 1.115 0 2.099.957 2.099 2.045 0 1.166-.933 2.151-2.099 2.151zm0 0" fill="#206FAC" sketch:type="MSShapeGroup"/><path d="M16 83c-7.17 0-13 5.834-13 13.002 0 7.166 5.83 12.998 13 12.998 7.166 0 13-5.832 13-12.998 0-7.168-5.834-13.002-13-13.002zm0 24.016c-6.078 0-11.018-4.942-11.018-11.014 0-6.078 4.94-11.018 11.018-11.018 6.072 0 11.014 4.94 11.014 11.018 0 6.072-4.942 11.014-11.014 11.014zm-3.633-3.856c.42-.021.793-.064 1.117-.15.444-.127.627-.469.627-.936v-5.795c-.047-.447-.23-.832-.603-1.064-.28-.172-.885-.342-1.303-.363v-1.063l5.658-.258.158.149v8.265c0 .469.211.809.631.959.35.129.723.235 1.141.256v1.024h-7.426v-1.024zm3.631-11.146c-1.113 0-2.098-1.01-2.098-2.151 0-1.06.985-2.045 2.098-2.045 1.115 0 2.099.957 2.099 2.045 0 1.166-.933 2.151-2.099 2.151zm0 0" fill="#fff" sketch:type="MSShapeGroup"/><path d="M16 43c-7.17 0-13 5.834-13 13.002 0 7.166 5.83 12.998 13 12.998 7.166 0 13-5.832 13-12.998 0-7.168-5.834-13.002-13-13.002zm0 24.016c-6.078 0-11.018-4.942-11.018-11.014 0-6.078 4.94-11.018 11.018-11.018 6.072 0 11.014 4.94 11.014 11.018 0 6.072-4.942 11.014-11.014 11.014zm-3.633-3.856c.42-.021.793-.064 1.117-.15.444-.127.627-.469.627-.936v-5.795c-.047-.447-.23-.832-.603-1.064-.28-.172-.885-.342-1.303-.363v-1.063l5.658-.258.158.149v8.265c0 .469.211.809.631.959.35.129.723.235 1.141.256v1.024h-7.426v-1.024zm3.631-11.146c-1.113 0-2.098-1.01-2.098-2.151 0-1.06.985-2.045 2.098-2.045 1.115 0 2.099.957 2.099 2.045 0 1.166-.933 2.151-2.099 2.151zm0 0" fill="#67747C" sketch:type="MSShapeGroup"/><path d="M16 3c-7.17 0-13 5.834-13 13.002 0 7.166 5.83 12.998 13 12.998 7.166 0 13-5.832 13-12.998 0-7.168-5.834-13.002-13-13.002zm0 24.016c-6.078 0-11.018-4.942-11.018-11.014 0-6.078 4.94-11.018 11.018-11.018 6.072 0 11.014 4.94 11.014 11.018 0 6.072-4.942 11.014-11.014 11.014zm-3.633-3.856c.42-.021.793-.064 1.117-.15.444-.127.627-.469.627-.936v-5.795c-.047-.447-.23-.832-.603-1.064-.28-.172-.885-.342-1.303-.363v-1.063l5.658-.258.158.149v8.265c0 .469.211.809.631.959.35.129.723.235 1.141.256v1.024h-7.426v-1.024zm3.631-11.146c-1.113 0-2.098-1.01-2.098-2.151 0-1.06.985-2.045 2.098-2.045 1.115 0 2.099.957 2.099 2.045 0 1.166-.933 2.151-2.099 2.151zm0 0" fill="#3B444F" sketch:type="MSShapeGroup"/></g></svg>

<?xml version="1.0" encoding="UTF-8" standalone="no"?>
<svg width="32px" height="232px" viewBox="0 0 32 232" version="1.1" xmlns="http://www.w3.org/2000/svg" xmlns:xlink="http://www.w3.org/1999/xlink" xmlns:sketch="http://www.bohemiancoding.com/sketch/ns">
    <title>information--line</title>
    <description>Created with Sketch (http://www.bohemiancoding.com/sketch)</description>
    <defs></defs>
    <g id="Points-of-interest" stroke="none" stroke-width="1" fill="none" fill-rule="evenodd" sketch:type="MSPage">
        <path d="M16,123 C8.83,123 3,128.834 3,136.002 C3,143.168 8.83,149 16,149 C23.166,149 29,143.168 29,136.002 C29,128.834 23.166,123 16,123 Z M16,147.016 C9.922,147.016 4.982,142.074 4.982,136.002 C4.982,129.924 9.922,124.984 16,124.984 C22.072,124.984 27.014,129.924 27.014,136.002 C27.014,142.074 22.072,147.016 16,147.016 Z M12.367,143.16 C12.787,143.139 13.16,143.096 13.484,143.01 C13.928,142.883 14.111,142.541 14.111,142.074 L14.111,136.279 C14.064,135.832 13.881,135.447 13.508,135.215 C13.228,135.043 12.623,134.873 12.205,134.852 L12.205,133.789 L17.863,133.531 L18.021,133.68 L18.021,141.945 C18.021,142.414 18.232,142.754 18.652,142.904 C19.002,143.033 19.375,143.139 19.793,143.16 L19.793,144.184 L12.367,144.184 L12.367,143.16 Z M15.998,132.014 C14.885,132.014 13.9,131.004 13.9,129.863 C13.9,128.803 14.885,127.818 15.998,127.818 C17.113,127.818 18.097,128.775 18.097,129.863 C18.097,131.029 17.164,132.014 15.998,132.014 Z M15.998,132.014" id="information-line--lp-blue" fill="#206FAC" sketch:type="MSShapeGroup"></path>
        <path d="M16,83 C8.83,83 3,88.834 3,96.002 C3,103.168 8.83,109 16,109 C23.166,109 29,103.168 29,96.002 C29,88.834 23.166,83 16,83 Z M16,107.016 C9.922,107.016 4.982,102.074 4.982,96.002 C4.982,89.924 9.922,84.984 16,84.984 C22.072,84.984 27.014,89.924 27.014,96.002 C27.014,102.074 22.072,107.016 16,107.016 Z M12.367,103.16 C12.787,103.139 13.16,103.096 13.484,103.01 C13.928,102.883 14.111,102.541 14.111,102.074 L14.111,96.279 C14.064,95.832 13.881,95.447 13.508,95.215 C13.228,95.043 12.623,94.873 12.205,94.852 L12.205,93.789 L17.863,93.531 L18.021,93.68 L18.021,101.945 C18.021,102.414 18.232,102.754 18.652,102.904 C19.002,103.033 19.375,103.139 19.793,103.16 L19.793,104.184 L12.367,104.184 L12.367,103.16 Z M15.998,92.014 C14.885,92.014 13.9,91.004 13.9,89.863 C13.9,88.803 14.885,87.818 15.998,87.818 C17.113,87.818 18.097,88.775 18.097,89.863 C18.097,91.029 17.164,92.014 15.998,92.014 Z M15.998,92.014" id="information-line--white" fill="#FFFFFF" sketch:type="MSShapeGroup"></path>
        <path d="M16,43 C8.83,43 3,48.834 3,56.002 C3,63.168 8.83,69 16,69 C23.166,69 29,63.168 29,56.002 C29,48.834 23.166,43 16,43 Z M16,67.016 C9.922,67.016 4.982,62.074 4.982,56.002 C4.982,49.924 9.922,44.984 16,44.984 C22.072,44.984 27.014,49.924 27.014,56.002 C27.014,62.074 22.072,67.016 16,67.016 Z M12.367,63.16 C12.787,63.139 13.16,63.096 13.484,63.01 C13.928,62.883 14.111,62.541 14.111,62.074 L14.111,56.279 C14.064,55.832 13.881,55.447 13.508,55.215 C13.228,55.043 12.623,54.873 12.205,54.852 L12.205,53.789 L17.863,53.531 L18.021,53.68 L18.021,61.945 C18.021,62.414 18.232,62.754 18.652,62.904 C19.002,63.033 19.375,63.139 19.793,63.16 L19.793,64.184 L12.367,64.184 L12.367,63.16 Z M15.998,52.014 C14.885,52.014 13.9,51.004 13.9,49.863 C13.9,48.803 14.885,47.818 15.998,47.818 C17.113,47.818 18.097,48.775 18.097,49.863 C18.097,51.029 17.164,52.014 15.998,52.014 Z M15.998,52.014" id="information-line--body-grey" fill="#67747C" sketch:type="MSShapeGroup"></path>
        <path d="M16,3 C8.83,3 3,8.834 3,16.002 C3,23.168 8.83,29 16,29 C23.166,29 29,23.168 29,16.002 C29,8.834 23.166,3 16,3 Z M16,27.016 C9.922,27.016 4.982,22.074 4.982,16.002 C4.982,9.924 9.922,4.984 16,4.984 C22.072,4.984 27.014,9.924 27.014,16.002 C27.014,22.074 22.072,27.016 16,27.016 Z M12.367,23.16 C12.787,23.139 13.16,23.096 13.484,23.01 C13.928,22.883 14.111,22.541 14.111,22.074 L14.111,16.279 C14.064,15.832 13.881,15.447 13.508,15.215 C13.228,15.043 12.623,14.873 12.205,14.852 L12.205,13.789 L17.863,13.531 L18.021,13.68 L18.021,21.945 C18.021,22.414 18.232,22.754 18.652,22.904 C19.002,23.033 19.375,23.139 19.793,23.16 L19.793,24.184 L12.367,24.184 L12.367,23.16 Z M15.998,12.014 C14.885,12.014 13.9,11.004 13.9,9.863 C13.9,8.803 14.885,7.818 15.998,7.818 C17.113,7.818 18.097,8.775 18.097,9.863 C18.097,11.029 17.164,12.014 15.998,12.014 Z M15.998,12.014" id="information-line--title-grey" fill="#3B444F" sketch:type="MSShapeGroup"></path>
    </g>
</svg>
